X:556
T: "Bitte und Gewaehrung"
N: Z1236
O: Europa, Mitteleuropa, Oesterreich
R: Liebes - Lied
M: 3/4
L: 1/8
K: F
F2 | GFEFGE | F2Ac
F2 | dc=BcdB | c2eg
c2 | cbg3c | caf3
A | d2BABE | F2z2

@@@ Tune index: 10314
